X: 11
T: Fanny Dillon
C: Carolan
%R: reel
B: "The Hibernian Muse" p.7
F: http://imslp.org/wiki/The_Hibernian_Muse_%28Various%29
Z: 2015 John Chambers <jc:trillian.mit.edu>
P: No. XI.
M: C|
L: 1/8
K: Gm
% - - - - - - - - - - - - - - - - - - - - - - - - - - - - -
V: 1
(dg)g2- ({a}gf)Tdc | B2(B>c) (Bc)BG | F4 (dc)df |\
gag2- gfd2 | f3g (gf)dc | B3c (Bc)BG | (FG)(FG) cBTAG |
G4 z2d>e | (fd)dc (BG)Bc | defd (gf)ga | ba g4 a/g/f |\
d4 Bcde | (fd)ga (ga)gf | (dB)de dcBA | G4 z4 |]
Bcd2- ({e}dc)BA | B3c (B/c/B/G/) D2 | B3c (d/c/d/e/) fc | d2g2- {a}g4 |\
(ba) b4 (ba) | (ag) g4 (g/a/g/f/) | d4 Bcde |
f4 (dc)Bf | g4 (gf)dg | (fd) (d/c/B) (cd) (B/c/B/G/) | F4 Bcde |\
(fd)ga bagf | (dB) de/g/ dcBA | G4 z4 |]
% - - - - - - - - - - - - - - - - - - - - - - - - - - - - -
V: 2 clef=bass middle=d
B2b2 B2b2 | B2b2 g2e2 | dedB F2z2 |\
z2b2 B2z2 | B2b2 B2b2 | B2b2 g2e2 | d2B2 c2d2 |
g2G2 z4 | B2z2 e2z2 | B2z2 e2z2 | z2e2 E2z2 |\
z2b2 B2z2 | b2z2 b2z2 | G3c d2D2 | G2g2 G4 |]
G2g2 G2g2 | G2g2 G2g2 | z2f2 b2a2 | z2g2 G2z2 |\
G2g2 G2g2 | G2g2 G2z2 | z2B2B2z2 |
z2d'2 d2z2 | z2e'2 e2z2 | d2B2 z2e2 | (dedc) B3z |\
b2z2 b2z2 | B3c d2D2 | G2g2 G4 |]

%%sep 2 1 500
%%sep 1 1 500

